dist/svg/case-log.svg

<svg width="16" height="16" viewBox="0 0 16 16" fill="rgb(34, 34, 34)" xmlns="http://www.w3.org/2000/svg"><title>case-log</title><path d="M0 0V14C0 15.105 0.895 16 2 16H14V2H11V0H0ZM11 3H13V15H2C1.448 15 1 14.552 1 14C1 13.448 1.448 13 2 13H11V3ZM9 3.5H2V2.5H9V3.5ZM9 5.5H2V4.5H9V5.5Z" fill="rgb(34, 34, 34)" fill-opacity="1.00"/></svg>

<!-- Generated by Trend Micro Style Portal -->
<svg version="1.1" xmlns="http://www.w3.org/2000/svg" width="16" height="16" viewBox="0 0 16 16">
  <title>case-log</title>
  <path fill="rgb(34,34,34)" d="M0-0v14c0 1.105 0.895 2 2 2h12v-14h-3v-2h-11zM11 3h2v12h-11c-0.552 0-1-0.448-1-1s0.448-1 1-1h9v-10zM9 3.5h-7v-1h7v1zM9 5.5h-7v-1h7v1z"></path>
</svg>
